X:1
T:Easton, LM
T:Arranged from Mozart
T:Easton, LM
T:Public Domain
C:Arranged from Mozart
Z:Public Domain
%%score ( 1 2 ) ( 3 4 )
L:1/8
M:3/4
K:A
V:1 treble 
V:2 treble 
V:3 bass 
V:4 bass 
V:1
 [CE]2 [CA]2 [DG]2 | [CA]4 [EB]2 | [Ec]4 [Fd]2 | (c2 B2) z2 | [^DB]2 [FA]2 [DF]2 | [EB]4 [Ec]2 | %6
 E4 (GF) | E6 [EB]2 [Ed]2 [EG]2 | B2 A2 [Ec]2 | (c2 e2) [EA]2 | c2 B2 z2 | [Dd]2 [Ec]2 [EB]2 | %12
 [Ee]4 ([Fd][DB]) | [CA]4 (cB) | [CA]6 |] %15
V:2
 x6 | x6 | x6 | E4 x2 | x6 | x6 | E4 ^D2 | E6 x6 | E4 x2 | E4 x2 | E4 x2 | x6 | x6 | x4 D2 | x6 |] %15
V:3
 [A,,A,]2 [A,,A,]2 [E,B,]2 | [F,A,]4 [E,G,]2 | A,4 [D,A,]2 | (A,2 G,2) z2 | %4
 [B,,B,]2 [B,,B,]2 (B,,A,,) | [G,,B,]4 [A,,A,]2 | [B,,G,]4 [B,,A,]2 | %7
 [E,G,]6 [E,G,]2 [E,B,]2 [E,D]2 | D2 C2 [A,,A,]2 | (A,2 C2) [C,A,]2 | A,2 G,2 z2 | %11
 [F,A,]2 [E,A,]2 [D,G,]2 | [C,A,]4 [D,F,]2 | E,4 [E,G,]2 | [A,,A,]6 |] %15
V:4
 x6 | x6 | A,4 x2 | E,4 x2 | x4 B,2 | x6 | x6 | x12 | A,,4 x2 | A,,4 x2 | E,4 x2 | x6 | x6 | %13
 E,4 x2 | x6 |] %15

